X: 141
T: Ryebuck Shearer
M:4/4
R:reel
L:1/8
Z:added by Alf warnock alf0@rogers.com - www.alfwarnock.info/alfs
K:D
AA|"D"d2cc "Bm"B2AA|"D"d2cc "Bm"B2AA|"D"d3e f2ed|"A7"e2ef e2fg|
"D"a2fe d2cd|"G"edcB "D"A2fg|a2fe d2cd|"A7"e4 "D"d2AA|
"D"d2cc "Bm"BBAA|"D"d2cc "Bm"B2AA|"D"d3e f2ed|"A7"e2ef e2fg|
"D"a2fe d2cd|"G"edcB "D"A2fg|a2fe d2cd|"A7"e4 "D"d4|]

